X:1
T:Title
%%score ( 1 2 ) { 3 | 4 }
L:1/8
Q:1/4=94
M:4/4
K:Bb
V:1 treble nm="Grand Piano, Soprano"
V:2 treble 
V:3 bass nm="Choir Pad, In the Sunshine of His Smile"
V:4 bass 
V:1
 [DF][DG][DB][DB] [DB][Ec][Fd][Fd] | [FB][FB][EG][EB] [EB][EG] [DF]2 | %2
w: By~Delma~H.~Brock * * * * * * *||
 [DF][DF][FB][FB] [FB][Fc][Fd][Fd] | [=EB][EB] [Fc]6 | [Fd][Ec][DB][DB] [DB][Fc][Fd][Fd] | %5
w: |||
 [FB][FB][EG][EB] [EB][EG] [DF]2 | [DF][DF][FB][FB] [FB][Gc][Fd][Fd] | [Fc][Ec] [DB]6 | %8
w: |||
 [Fd][Fd]B-[DB-] [DB-][DB-][DB][DF] | [DG][DB]d-[Fd-] [Gd-][Gd-] [Fd]2 | %10
w: ||
 [DF][DF][FB][FB] [FB][Fc][Fd][Fd] | [=EB][EB]c-[Fc-] [Fc-][Fc-] [Fc]2 | %12
w: ||
 [Fd][Ec][DB][DB] [DB][Ec][Fd][Fd] | [FB][FA][EG][EG] [EG][EG] [Ge]2 | %14
w: ||
 [Fd][Ec][DB][DB] [FB][Gc][Fd][DB] | [Ec][Ec]B-[DB-] [_DB-][EB-] [=DB]2- | [DB]4 z4 |] %17
w: |||
V:2
 x8 | x8 | x8 | x8 | x8 | x8 | x8 | x8 | z2 .D2 z4 | z2 .F2 z4 | x8 | z2 .F2 z4 | x8 | x8 | x8 | %15
 z2 .D2 z4 | x8 |] %17
V:3
 B,B,F,F, F,F,B,B, | B,B,B,G, G,B, B,2 | B,B,DD B,A,B,B, | CB, A,6 | B,A,B,B, B,A,B,B, | %5
 B,B,B,G, G,B, B,2 | B,B,DD B,B,B,B, | A,A, B,6 | B,B,F,F, F,F,F,B, | B,F,B,B, B,B, B,2 | %10
 B,B,DD B,A,B,B, | CB,A,A, A,A, A,2 | B,A,B,F, F,F,B,B, | B,B,B,B, B,B, B,2 | B,A,B,B, B,B,B,B, | %15
 A,A,B,F, =E,G, F,2- | F,4 z4 |] %17
V:4
 B,,B,,B,,B,, B,,B,,B,,B,, | D,D,E,E, E,E, B,,2 | B,,B,,B,,B,, D,F, z2 | G,G, F,6 | %4
 z F,G,G, G,F, z2 | D,D,E,E, E,E, B,,2 | B,,B,,B,,B,, D,E,F,F, | F,F, B,,6 | %8
 B,,B,,B,,B,, B,,B,,B,,B,, | B,,B,,B,,B,, G,,G,, B,,2 | B,,B,,B,,B,, D,F, z2 | G,G,F,F, F,F, F,2 | %12
 F,F,B,,B,, B,,B,,B,,B,, | D,D,E,E, E,E, E,2 | z F,G,G, D,E,F,F, | F,F, B,,6- | B,,4 z4 |] %17

